src/images/link.svg

<svg fill="none" height="15" viewBox="0 0 15 15" width="15" xmlns="http://www.w3.org/2000/svg"><path d="m10 8.31579v5.68421h-9v-9h5.44737" stroke="#fc732c"/><path d="m12.5 3c0-.27614-.2239-.5-.5-.5h-4.5c-.27614 0-.5.22386-.5.5s.22386.5.5.5h4v4c0 .27614.2239.5.5.5s.5-.22386.5-.5zm-6.14645 6.35355 6.00005-6-.7072-.7071-5.99995 6z" fill="#fc732c"/></svg>

<svg width="15" height="15" viewBox="0 0 15 15" fill="none" xmlns="http://www.w3.org/2000/svg">
<path d="M10 8.31579V14H1V5H6.44737" stroke="#FC732C"/>
<path d="M12.5 3C12.5 2.72386 12.2761 2.5 12 2.5L7.5 2.5C7.22386 2.5 7 2.72386 7 3C7 3.27614 7.22386 3.5 7.5 3.5L11.5 3.5L11.5 7.5C11.5 7.77614 11.7239 8 12 8C12.2761 8 12.5 7.77614 12.5 7.5L12.5 3ZM6.35355 9.35355L12.3536 3.35355L11.6464 2.64645L5.64645 8.64645L6.35355 9.35355Z" fill="#FC732C"/>
</svg>
